symbols-de/shields/motorway_11x1_z16.svg

<?xml version="1.0" encoding="UTF-8" standalone="no"?>
<svg
   xmlns:dc="http://purl.org/dc/elements/1.1/"
   xmlns:cc="http://creativecommons.org/ns#"
   xmlns:rdf="http://www.w3.org/1999/02/22-rdf-syntax-ns#"
   xmlns:svg="http://www.w3.org/2000/svg"
   xmlns="http://www.w3.org/2000/svg"
   xmlns:sodipodi="http://sodipodi.sourceforge.net/DTD/sodipodi-0.dtd"
   xmlns:inkscape="http://www.inkscape.org/namespaces/inkscape"
   width="100%"
   height="100%"
   viewBox="0 0 81.0 16.0"
   id="svg2"
   version="1.1"
   inkscape:version="0.91 r13725"
   sodipodi:docname="autobahn_11x1_z16.svg">
  <metadata
     id="metadata9">
    <rdf:RDF>
      <cc:Work
         rdf:about="">
        <dc:format>image/svg+xml</dc:format>
        <dc:type
           rdf:resource="http://purl.org/dc/dcmitype/StillImage" />
        <dc:title></dc:title>
      </cc:Work>
    </rdf:RDF>
  </metadata>
  <defs
     id="defs7" />
  <sodipodi:namedview
     pagecolor="#ffffff"
     bordercolor="#666666"
     borderopacity="1"
     objecttolerance="10"
     gridtolerance="10"
     guidetolerance="10"
     inkscape:pageopacity="0"
     inkscape:pageshadow="2"
     inkscape:window-width="930"
     inkscape:window-height="672"
     id="namedview5"
     showgrid="false"
     inkscape:zoom="4.3580247"
     inkscape:cx="40.5"
     inkscape:cy="8"
     inkscape:window-x="676"
     inkscape:window-y="322"
     inkscape:window-maximized="0"
     inkscape:current-layer="svg2" />
  <path
     inkscape:connector-curvature="0"
     d="m 0.5,7.999996 0,-5.181852 q 0,-0.27273 1.290322,-0.40909 L 39.639789,0.513592 q 0,-0.0136 0.86021,-0.0136 0.860213,0 0.860213,0.0136 l 37.849467,1.895462 q 1.29032,0.13636 1.29032,0.40909 l 0,10.363704 q 0,0.272729 -1.29032,0.409091 L 41.360212,15.4864 q 0,0.0136 -0.860213,0.0136 -0.86021,0 -0.86021,-0.0136 L 1.790322,13.590939 Q 0.5,13.454577 0.5,13.181848 Z"
     id="path6"
     style="fill:#365eaf;fill-opacity:1;stroke:#0528a2;stroke-width:1;stroke-miterlimit:4;stroke-dasharray:none;stroke-opacity:1" />
</svg>

<?xml version="1.0" encoding="UTF-8"?>
<svg xmlns="http://www.w3.org/2000/svg" xmlns:xlink="http://www.w3.org/1999/xlink" width="77pt" height="20pt" viewBox="0 0 77 20" version="1.1">
<g id="surface1">
<path style="fill-rule:nonzero;fill:rgb(21.176471%,36.862745%,68.627451%);fill-opacity:1;stroke-width:1;stroke-linecap:butt;stroke-linejoin:miter;stroke:rgb(1.960784%,15.686275%,63.529412%);stroke-opacity:1;stroke-miterlimit:4;" d="M 0.501319 8 L 0.501319 2.81875 C 0.501319 2.6375 0.928673 2.5 1.791599 2.409375 L 39.641183 0.5125 C 39.641183 0.503125 39.924716 0.5 40.5 0.5 C 41.075284 0.5 41.358817 0.503125 41.358817 0.5125 L 79.208401 2.409375 C 80.071327 2.5 80.498681 2.6375 80.498681 2.81875 L 80.498681 13.18125 C 80.498681 13.3625 80.071327 13.5 79.208401 13.590625 L 41.358817 15.4875 C 41.358817 15.496875 41.075284 15.5 40.5 15.5 C 39.924716 15.5 39.641183 15.496875 39.641183 15.4875 L 1.791599 13.590625 C 0.928673 13.5 0.501319 13.3625 0.501319 13.18125 Z M 0.501319 8 " transform="matrix(0.950617,0,0,1.25,0,0)"/>
</g>
</svg>
